symbols/it/speed-distant-2-unknown.svg

<?xml version="1.0" encoding="UTF-8" standalone="no"?>
<svg
   width="18"
   height="15.284394"
   viewBox="0 0 18 15.284394"
   version="1.1"
   id="svg35"
   sodipodi:docname="speed-distant-2-unknown.svg"
   inkscape:version="1.2.2 (b0a8486541, 2022-12-01)"
   xmlns:inkscape="http://www.inkscape.org/namespaces/inkscape"
   xmlns:sodipodi="http://sodipodi.sourceforge.net/DTD/sodipodi-0.dtd"
   xmlns:xlink="http://www.w3.org/1999/xlink"
   xmlns="http://www.w3.org/2000/svg"
   xmlns:svg="http://www.w3.org/2000/svg">
  <sodipodi:namedview
     id="namedview37"
     pagecolor="#ffffff"
     bordercolor="#666666"
     borderopacity="1.0"
     inkscape:showpageshadow="2"
     inkscape:pageopacity="0.0"
     inkscape:pagecheckerboard="0"
     inkscape:deskcolor="#d1d1d1"
     showgrid="false"
     inkscape:zoom="32"
     inkscape:cx="-3.34375"
     inkscape:cy="8.359375"
     inkscape:window-width="2560"
     inkscape:window-height="1368"
     inkscape:window-x="0"
     inkscape:window-y="0"
     inkscape:window-maximized="1"
     inkscape:current-layer="svg35" />
  <defs
     id="defs25">
    <filter
       id="filter-remove-color"
       x="0"
       y="0"
       width="1"
       height="1">
      <feColorMatrix
         color-interpolation-filters="sRGB"
         values="0 0 0 0 1 0 0 0 0 1 0 0 0 0 1 0 0 0 1 0"
         id="feColorMatrix2" />
    </filter>
    <image
       id="source-15"
       x="0"
       y="0"
       width="18"
       height="16"
       xlink:href="data:image/png;base64,iVBORw0KGgoAAAANSUhEUgAAABIAAAAQCAYAAAAbBi9cAAAABmJLR0QA/wD/AP+gvaeTAAAAEklEQVQ4jWNgGAWjYBSMgsEBAASQAAFfmu8pAAAAAElFTkSuQmCC" />
    <mask
       id="mask-0">
      <g
         filter="url(#filter-remove-color)"
         id="g8">
        <use
           xlink:href="#source-15"
           id="use6" />
      </g>
    </mask>
    <clipPath
       id="clip-0">
      <rect
         x="0"
         y="0"
         width="18"
         height="16"
         id="rect11" />
    </clipPath>
    <g
       id="source-14"
       clip-path="url(#clip-0)">
      <path
         fill-rule="nonzero"
         fill="rgb(100%, 100%, 100%)"
         fill-opacity="1"
         d="M 18 10.128906 L 18 15.296875 L 0 15.296875 L 0 10.128906 Z M 18 10.128906 "
         id="path14" />
    </g>
    <clipPath
       id="clip-1">
      <rect
         x="0"
         y="0"
         width="18"
         height="16"
         id="rect17" />
    </clipPath>
    <g
       id="source-17"
       clip-path="url(#clip-1)">
      <g
         mask="url(#mask-0)"
         id="g22">
        <use
           xlink:href="#source-14"
           id="use20" />
      </g>
    </g>
    <mask
       maskUnits="userSpaceOnUse"
       id="mask2502">
      <g
         id="g2508">
        <path
           fill="none"
           stroke-width="0.713856"
           stroke-linecap="butt"
           stroke-linejoin="miter"
           stroke="#ffffff"
           stroke-opacity="1"
           stroke-miterlimit="4"
           d="M -0.40137231,26.15184 6.4267527,21.710434"
           id="path2504" />
        <path
           fill="none"
           stroke-width="0.720853"
           stroke-linecap="butt"
           stroke-linejoin="miter"
           stroke="#ffffff"
           stroke-opacity="1"
           stroke-miterlimit="4"
           d="m 6.7783149,26.394028 6.8203131,-4.53125"
           id="path2506" />
      </g>
    </mask>
    <clipPath
       id="clip-1-3">
      <rect
         x="0"
         y="0"
         width="18"
         height="14"
         id="rect2995" />
    </clipPath>
    <mask
       id="mask-0-6">
      <g
         filter="url(#filter-remove-color)"
         id="g2986"
         style="filter:url(#filter-remove-color-7)">
        <use
           xlink:href="#source-17"
           id="use2984" />
      </g>
    </mask>
    <filter
       id="filter-remove-color-7"
       x="0"
       y="0"
       width="1"
       height="1">
      <feColorMatrix
         color-interpolation-filters="sRGB"
         values="0 0 0 0 1 0 0 0 0 1 0 0 0 0 1 0 0 0 1 0"
         id="feColorMatrix2980" />
    </filter>
    <clipPath
       id="clip-0-5">
      <rect
         x="0"
         y="0"
         width="18"
         height="14"
         id="rect2989" />
    </clipPath>
    <clipPath
       id="clipPath1744">
      <rect
         x="0"
         y="0"
         width="18"
         height="14"
         id="rect1742" />
    </clipPath>
    <clipPath
       id="clipPath1748">
      <rect
         x="0"
         y="0"
         width="18"
         height="14"
         id="rect1746" />
    </clipPath>
    <mask
       id="mask1754">
      <g
         filter="url(#filter-remove-color)"
         id="g1752"
         style="filter:url(#filter-remove-color-7)">
        <use
           xlink:href="#source-17"
           id="use1750" />
      </g>
    </mask>
    <filter
       id="filter1758"
       x="0"
       y="0"
       width="1"
       height="1">
      <feColorMatrix
         color-interpolation-filters="sRGB"
         values="0 0 0 0 1 0 0 0 0 1 0 0 0 0 1 0 0 0 1 0"
         id="feColorMatrix1756" />
    </filter>
    <clipPath
       id="clipPath1762">
      <rect
         x="0"
         y="0"
         width="18"
         height="14"
         id="rect1760" />
    </clipPath>
  </defs>
  <path
     fill-rule="nonzero"
     fill="rgb(0%, 0%, 0%)"
     fill-opacity="1"
     d="M 18 0 L 18 9.753906 L 0 9.753906 L 0 0 Z M 18 0 "
     id="path27" />
  <path
     fill-rule="nonzero"
     fill="rgb(100%, 100%, 100%)"
     fill-opacity="1"
     d="M 8.585938 6.222656 C 8.582031 6.199219 8.582031 6.175781 8.582031 6.152344 C 8.582031 6.121094 8.582031 6.097656 8.582031 6.074219 C 8.582031 5.695312 8.65625 5.382812 8.804688 5.136719 C 8.953125 4.886719 9.175781 4.644531 9.472656 4.410156 C 9.757812 4.1875 9.972656 3.984375 10.113281 3.800781 C 10.257812 3.613281 10.332031 3.382812 10.332031 3.105469 C 10.332031 2.800781 10.226562 2.550781 10.015625 2.351562 C 9.804688 2.148438 9.480469 2.042969 9.046875 2.042969 C 8.613281 2.042969 8.269531 2.160156 8.019531 2.386719 C 7.773438 2.609375 7.648438 2.929688 7.648438 3.339844 L 6.769531 3.339844 C 6.769531 2.914062 6.863281 2.550781 7.058594 2.253906 C 7.253906 1.953125 7.523438 1.722656 7.867188 1.570312 C 8.207031 1.410156 8.601562 1.332031 9.046875 1.332031 C 9.492188 1.332031 9.875 1.402344 10.199219 1.546875 C 10.527344 1.6875 10.78125 1.894531 10.960938 2.160156 C 11.140625 2.421875 11.230469 2.738281 11.230469 3.105469 C 11.230469 3.390625 11.183594 3.632812 11.089844 3.835938 C 11 4.035156 10.875 4.222656 10.707031 4.390625 C 10.542969 4.554688 10.347656 4.726562 10.117188 4.898438 C 9.921875 5.050781 9.769531 5.191406 9.667969 5.320312 C 9.566406 5.453125 9.496094 5.589844 9.457031 5.738281 C 9.417969 5.878906 9.390625 6.039062 9.378906 6.222656 Z M 8.996094 8.421875 C 8.808594 8.421875 8.652344 8.359375 8.527344 8.238281 C 8.40625 8.109375 8.34375 7.953125 8.34375 7.769531 C 8.34375 7.585938 8.40625 7.429688 8.527344 7.308594 C 8.652344 7.191406 8.808594 7.128906 8.996094 7.128906 C 9.183594 7.128906 9.339844 7.191406 9.464844 7.308594 C 9.59375 7.429688 9.65625 7.585938 9.65625 7.769531 C 9.65625 7.953125 9.59375 8.109375 9.464844 8.238281 C 9.339844 8.359375 9.183594 8.421875 8.996094 8.421875 Z M 8.996094 8.421875 "
     id="path29" />
  <path
     fill-rule="nonzero"
     fill="#000000"
     fill-opacity="1"
     d="m 0,10.120331 h 18 v 5.164062 H 0 Z m 0,0"
     id="path3013"
     style="stroke-width:0.999622" />
  <g
     id="use3015"
     clip-path="url(#clip-1)"
     transform="matrix(1,0,0,0.99924414,0,1.5721107)">
    <g
       mask="url(#mask-0)"
       id="g2815">
      <g
         id="g2813"
         clip-path="url(#clip-0)">
        <path
           fill-rule="nonzero"
           fill="#ffffff"
           fill-opacity="1"
           d="m 18,8.554688 v 5.167968 H 0 V 8.554688 Z m 0,0"
           id="path2811" />
      </g>
    </g>
  </g>
  <path
     fill-rule="nonzero"
     fill="#000000"
     fill-opacity="1"
     d="m 0,10.120331 h 18 v 5.164063 H 0 Z m 0,0"
     id="path31"
     style="stroke-width:0.999622" />
  <path
     id="path1241"
     mask="none"
     style="fill:#ffffff;fill-opacity:1;stroke-width:1.28522"
     d="M 7.222656,10.120331 0,14.814047 v 0.470347 h 0.958984 l 7.945313,-5.164063 z m 9.53125,0 -7.779297,5.164063 h 1.675782 L 18,10.405272 v -0.284941 z" />
</svg>

<?xml version="1.0" encoding="UTF-8"?>
<svg xmlns="http://www.w3.org/2000/svg" xmlns:xlink="http://www.w3.org/1999/xlink" width="18" height="15.284394" viewBox="0 0 18 15.284394">
<path fill-rule="nonzero" fill="rgb(0%, 0%, 0%)" fill-opacity="1" d="M 18 0 L 18 9.753906 L 0 9.753906 L 0 0 Z M 18 0 "/>
<path fill-rule="nonzero" fill="rgb(100%, 100%, 100%)" fill-opacity="1" d="M 8.585938 6.222656 C 8.582031 6.199219 8.582031 6.175781 8.582031 6.152344 C 8.582031 6.121094 8.582031 6.097656 8.582031 6.074219 C 8.582031 5.695312 8.65625 5.382812 8.804688 5.136719 C 8.953125 4.886719 9.175781 4.644531 9.472656 4.410156 C 9.757812 4.1875 9.972656 3.984375 10.113281 3.800781 C 10.257812 3.613281 10.332031 3.382812 10.332031 3.105469 C 10.332031 2.800781 10.226562 2.550781 10.015625 2.351562 C 9.804688 2.148438 9.480469 2.042969 9.046875 2.042969 C 8.613281 2.042969 8.269531 2.160156 8.019531 2.386719 C 7.773438 2.609375 7.648438 2.929688 7.648438 3.339844 L 6.769531 3.339844 C 6.769531 2.914062 6.863281 2.550781 7.058594 2.253906 C 7.253906 1.953125 7.523438 1.722656 7.867188 1.570312 C 8.207031 1.410156 8.601562 1.332031 9.046875 1.332031 C 9.492188 1.332031 9.875 1.402344 10.199219 1.546875 C 10.527344 1.6875 10.78125 1.894531 10.960938 2.160156 C 11.140625 2.421875 11.230469 2.738281 11.230469 3.105469 C 11.230469 3.390625 11.183594 3.632812 11.089844 3.835938 C 11 4.035156 10.875 4.222656 10.707031 4.390625 C 10.542969 4.554688 10.347656 4.726562 10.117188 4.898438 C 9.921875 5.050781 9.769531 5.191406 9.667969 5.320312 C 9.566406 5.453125 9.496094 5.589844 9.457031 5.738281 C 9.417969 5.878906 9.390625 6.039062 9.378906 6.222656 Z M 8.996094 8.421875 C 8.808594 8.421875 8.652344 8.359375 8.527344 8.238281 C 8.40625 8.109375 8.34375 7.953125 8.34375 7.769531 C 8.34375 7.585938 8.40625 7.429688 8.527344 7.308594 C 8.652344 7.191406 8.808594 7.128906 8.996094 7.128906 C 9.183594 7.128906 9.339844 7.191406 9.464844 7.308594 C 9.59375 7.429688 9.65625 7.585938 9.65625 7.769531 C 9.65625 7.953125 9.59375 8.109375 9.464844 8.238281 C 9.339844 8.359375 9.183594 8.421875 8.996094 8.421875 Z M 8.996094 8.421875 "/>
<path fill-rule="nonzero" fill="rgb(0%, 0%, 0%)" fill-opacity="1" d="M 0 10.121094 L 18 10.121094 L 18 15.285156 L 0 15.285156 Z M 0 10.121094 "/>
<path fill-rule="nonzero" fill="rgb(0%, 0%, 0%)" fill-opacity="1" d="M 0 10.121094 L 18 10.121094 L 18 15.285156 L 0 15.285156 Z M 0 10.121094 "/>
<path fill-rule="nonzero" fill="rgb(100%, 100%, 100%)" fill-opacity="1" d="M 7.222656 10.121094 L 0 14.8125 L 0 15.285156 L 0.957031 15.285156 L 8.90625 10.121094 Z M 16.753906 10.121094 L 8.972656 15.285156 L 10.652344 15.285156 L 18 10.40625 L 18 10.121094 Z M 16.753906 10.121094 "/>
</svg>
